icons/mobile/24/svg/local-host-slash-24.svg

<!-- This Source Code Form is subject to the terms of the Mozilla Public
   - License, v. 2.0. If a copy of the MPL was not distributed with this
   - file, You can obtain one at http://mozilla.org/MPL/2.0/. -->
<svg width="24" height="24" viewBox="0 0 24 24" fill="none" xmlns="http://www.w3.org/2000/svg">
    <path fill-rule="evenodd" clip-rule="evenodd" d="M5.26172 5.02344C5.26398 5.02322 5.2663 5.02365 5.26855 5.02344L6.99512 6.75H6.98828L16.4873 16.25H16.4951L19.9951 19.75H19.9873L22 21.7627L21.3809 22.3809L20.7627 23L17.5127 19.75H2V18H5.5C4.12102 18 3.00003 16.879 3 15.5V7.5C3 6.86998 3.23555 6.29736 3.62207 5.86035L2 4.23828L3.23828 3L5.26172 5.02344ZM4.86523 7.10352C4.79289 7.2188 4.75 7.35439 4.75 7.5V15.5C4.75003 15.913 5.08702 16.25 5.5 16.25H14.0127L4.86523 7.10352Z" fill="black" />
    <path d="M22 18V19.6338L20.3662 18H22Z" fill="black" />
    <path d="M18.5 5C19.879 5.00002 21 6.12101 21 7.5V15.5C21 16.351 20.5709 17.1017 19.9189 17.5527L18.5957 16.2305C18.9617 16.1815 19.25 15.879 19.25 15.5V7.5C19.25 7.08701 18.913 6.75002 18.5 6.75H9.11621L7.36621 5H18.5Z" fill="black" />
</svg>

<!-- This Source Code Form is subject to the terms of the Mozilla Public
   - License, v. 2.0. If a copy of the MPL was not distributed with this
   - file, You can obtain one at http://mozilla.org/MPL/2.0/. -->
<svg xmlns="http://www.w3.org/2000/svg" width="24" height="24" fill="none" viewBox="0 0 24 24">
    <path fill="#000" fill-rule="evenodd" d="M5.262 5.023h.007L6.995 6.75h-.007l9.5 9.5h.007l3.5 3.5h-.008L22 21.763l-.62.618-.617.619-3.25-3.25H2V18h3.5A2.5 2.5 0 0 1 3 15.5v-8c0-.63.236-1.203.622-1.64L2 4.238 3.238 3zm-.397 2.08a.74.74 0 0 0-.115.397v8c0 .413.337.75.75.75h8.513z" clip-rule="evenodd" />
    <path fill="#000" d="M22 18v1.634L20.366 18zM18.5 5C19.879 5 21 6.121 21 7.5v8c0 .851-.43 1.602-1.081 2.053l-1.323-1.323a.74.74 0 0 0 .654-.73v-8a.75.75 0 0 0-.75-.75H9.116L7.366 5z" />
</svg>
